openframe-frontend-core/src/components/icons-v2/brand-logos/windows.svg

<svg width="24" height="24" viewBox="0 0 24 24" fill="none" xmlns="http://www.w3.org/2000/svg">
<path d="M9.875 20.0005V13.1245H2C1.37868 13.1245 0.875 12.6208 0.875 11.9995C0.875264 11.3784 1.37884 10.8745 2 10.8745H9.875V4C9.875 3.37868 10.3787 2.875 11 2.875C11.6213 2.875 12.125 3.37868 12.125 4V10.8745H21.9995L22.1152 10.8804C22.6823 10.938 23.1243 11.4173 23.1245 11.9995C23.1245 12.5819 22.6824 13.0609 22.1152 13.1186L21.9995 13.1245H12.125V20.0005C12.1247 20.6216 11.6212 21.1255 11 21.1255C10.3788 21.1255 9.87526 20.6216 9.875 20.0005Z" fill="#888888"/>
<path d="M20.8745 5.99777C20.8743 4.8746 19.8937 4.00322 18.7783 4.13595L4.77881 5.80294C3.83563 5.91518 3.125 6.71493 3.125 7.66476V16.3352C3.125 17.285 3.83563 18.0848 4.77881 18.197L18.7783 19.864L18.9863 19.8772C20.0129 19.8864 20.8743 19.0549 20.8745 18.0022V5.99777ZM23.1245 18.0022C23.1243 20.3961 21.0993 22.2691 18.7417 22.1184L18.5132 22.0979L4.51221 20.4323C2.43737 20.1853 0.875 18.4247 0.875 16.3352V7.66476C0.875 5.57523 2.43736 3.81465 4.51221 3.56759L18.5132 1.90206C20.9669 1.61044 23.1243 3.52677 23.1245 5.99777V18.0022Z" fill="#888888"/>
</svg>

<svg xmlns="http://www.w3.org/2000/svg" width="24" height="24" fill="none" viewBox="0 0 24 24">
  <path fill="#888" d="M9.875 20v-6.876H2a1.125 1.125 0 0 1 0-2.25h7.875V4a1.125 1.125 0 0 1 2.25 0v6.874H22l.115.006a1.125 1.125 0 0 1 0 2.239l-.115.005h-9.875V20a1.125 1.125 0 0 1-2.25 0Z"/>
  <path fill="#888" d="M20.875 5.998a1.875 1.875 0 0 0-2.097-1.862l-14 1.667a1.875 1.875 0 0 0-1.653 1.862v8.67c0 .95.71 1.75 1.654 1.862l14 1.667.207.013a1.875 1.875 0 0 0 1.889-1.875V5.998Zm2.25 12.004a4.124 4.124 0 0 1-4.383 4.116l-.229-.02-14-1.666a4.126 4.126 0 0 1-3.638-4.097v-8.67c0-2.09 1.562-3.85 3.637-4.097l14.001-1.666a4.125 4.125 0 0 1 4.611 4.096v12.004Z"/>
</svg>
